X: 17456
T: Highlandman Who Kissed His Granny, The
R: reel
M: 4/4
K: Adorian
|:cggf gage|cegf eBBB|cggf gafa|aage dgeB:|
|:cABc AAAB|cAAA dddB|ccBc ABcd|efge dgeB:|

